X:718
L:1/8
M:4/4
K:F
 A | F<F F2 (Ac)cd | _beg_B GBBd | cF F2 (Ac)cb | afge fdcA | F<F F2 (Ac)cd | _efg_E GBBd | 
 cF F2 (Ac)cb | afge f2 f || g | afcf cfaf | bgaf e(gg)b | afcf cfaf | ecde f2 fg | afcf cfaf | 
 bgaf e(gg)b | afge fdcA | cfge f2 f ||

